X:40
T:3/4
B:Rasmus Storm's Notebook
D:Rasmus Storm's Notebook
M:3/4
O:Denmark
Z:Andy Hornby
%%TUNEURL: http://www.leeds.ac.uk/music/Info/RRTuneBk/gettune/00000b62.html
%%ID:00000b62
K:G min
BA G2 ^F2|GA B2A2|BdD2^F2|G6::\
Bcd2cB|ABc2BA|
Bc dc dB|AB cB (3cBA|\
BA G2^F2|GA B2A2|BdD2^F2|G4:|
